P3
12 11
255
0 255 0 0 255 0 0 255 0 0 255 0 0 255 0 0 255 0 0 255 0 0 255 0 255 255 0 255 0 0 0 255 0 0 255 255
0 128 128 0 255 0 0 255 0 255 0 0 0 255 0 0 255 0 255 0 0 255 255 0 0 255 0 0 255 0 0 255 0 0 255 255
0 128 128 0 255 0 255 0 0 0 255 0 0 255 0 0 255 0 255 0 0 0 255 0 128 0 0 128 0 0 128 0 0 0 255 255
0 128 128 255 0 0 0 128 0 255 0 0 0 255 0 255 0 0 0 255 0 255 0 0 128 128 0 0 128 0 128 0 0 0 255 255
0 128 128 255 0 0 0 255 0 255 255 0 128 0 0 128 128 0 128 0 0 0 128 0 128 128 0 255 0 0 255 0 0 0 255 255
0 128 128 0 255 0 0 255 0 0 255 0 0 255 0 0 0 255 0 128 0 0 128 0 0 128 0 255 0 0 0 0 255 0 255 255
0 128 128 0 255 0 0 255 0 0 255 0 0 0 255 0 0 255 0 255 0 0 255 0 0 255 0 0 0 255 255 0 0 0 255 255
0 128 128 0 255 0 0 255 0 0 255 0 0 0 255 128 0 0 0 0 255 0 128 0 128 0 0 0 0 255 255 0 0 0 255 255
0 128 128 0 0 255 0 128 0 0 128 0 0 128 0 0 128 0 0 128 0 0 128 0 0 0 255 0 128 0 0 128 0 0 255 255
0 128 128 0 255 0 255 0 0 255 0 0 0 0 255 0 128 0 0 128 0 0 128 0 0 128 0 0 128 0 0 128 0 0 255 255
0 128 128 0 0 255 255 0 0 0 255 0 0 255 0 0 0 255 0 0 0 0 0 0 0 0 0 0 0 0 0 0 0 0 0 0
